X: 1
T: the Witches' Hill
C: Abraham Mackintosh
R: air
Z: 1997 by John Chambers <jc:trillian.mit.edu>
M: C
L: 1/8
K: ADor
E \
| "Am"A>B {AB}c>B A<E E>F | "G"G>D B,>D "Em"G>A B<E \
| "Am"A>B c>d  "C"e>d e<g | "G"d>B "(E7)"e/d/c/B/ "Am"A2-A :|
"G"B \
| "C"c/d/e/f/ g>a g>e c>e | "G"d<g d>c B<G G>B \
| "C"c/d/e/f/ g>a g>e c>e | "G"d>B "(E7)"e/d/c/B/ "Am"A2-A |]
"G"B \
| "C"c/d/e/f/ g>a g>e c>e | "G"d<g d>c B<G G>B \
| "Am"A>B c>d  "C"e>d e<g | "G"d>B "(E7)"e/d/c/B/ "Am"A2-A |]
